X:413
T: AUF EINEM SCHOENEN GRUENEN RASEN
N: E0341
O: Europa, Mitteleuropa, Deutschland
R: historisches Lied, Krieg (1799)
M: 3/4
L: 1/8
K: Eb
EEE | E3EFG | G2F
FFG | A3FBA | A2G2
GA | B3GcA | F2z2
B2 | G2B2B2 | e2c2
c2 | A2c2c2 | e2d2
c2 | c2B2B2 | e2B2
B2 | A2G2G2 | G2A2
B2 | c4d2d2 | e4c3
A | G4F4 | E4z

